!!!OTL@@DE: Herzallerliebstes Schatzerl du
!!!COM: K&uuml;cken, Friedrich Wilhelm
!!!OMD: Andantino
!!!OCL: Erk, Ludwig
!!!GCO: Deutscher Liederschatz, Band 1
**kern	**kern	**kern
*staff3	*staff2	*staff1
*Ipiano	*Ipiano	*Ivox
*>[P,A,A1,A,A2,B,C,A,A1,A,A2,B,C,D]	*>[P,A,A1,A,A2,B,C,A,A1,A,A2,B,C,D]	*>[P,A,A1,A,A2,B,C,A,A1,A,A2,B,C,D]
*>norep[P,A,A2,B,C,D]	*>norep[P,A,A2,B,C,D]	*>norep[P,A,A2,B,C,D]
*>P	*>P	*>P
=1-	=1-	=1-
*clefF4	*clefG2	*clefG2
*k[f#c#]	*k[f#c#]	*k[f#c#]
*D:	*D:	*D:
*M3/4	*M3/4	*M3/4
*MM84	*MM84	*MM84
*^	*	*
2.AA/	2.DD\	2.r	2.r
=2	=2	=2	=2
2.AA^/	2.DD\	2.r	2.r
=3	=3	=3	=3
2.AA^/	2.DD^\	2.r	2.r
=4	=4	=4	=4
2.AA^/	2.DD^\	2.r	2.r
*v	*v	*	*
=5!|:	=5!|:	=5!|:
*>A	*>A	*>A
*MM84	*MM84	*MM84
8DD^/ 8D^/	8F#^/ 8A^/	8A/L
8r	8r	16f#'/Jk
.	.	16r
8D'\ 8A'\L	8d'/ 8f#'/L	8f#/
8D'\ 8A'\	8d'/ 8f#'/	8f#/
8D'\ 8A'\	8d'/ 8f#'/	8f#/
8D'\ 8A'\J	8d'/ 8f#'/J	8f#/
=6	=6	=6
4AA\ 4A\	(4d/ 4f#/	(8f#/L
.	.	8a/J)
4AA\ 4A\	8e/ 8g/L	(8g/L
.	8B#/ 8d#/J	8d#/J)
4AA\ 4A\	4c#/) 4e/	4e/
=7	=7	=7
8AAA^\ 8AA^\	8E^/ 8G^/ 8c#^/	8A/L
8r	8r	16g'/Jk
.	.	16r
8A'\L	8c#'/ 8e'/ 8g'/L	8g/
8A'\	8c#'/ 8e'/ 8g'/	8g/
8A'\	8c#'/ 8e'/ 8g'/	8g/
8A'\J	8c#'/ 8e'/ 8g'/J	8g/
=8	=8	=8
4D\ 4A\	(8g/L	(8g/L
.	8b/J	8b/J)
4D\ 4A\	8f#/ 8a/L	(8a/L
.	8c#/ 8e#/J	8e#/J)
4D\ 4A\	4d/) 4f#/	4f#/
=9	=9	=9
4DD/ 4D/	4A/ 4d/ 4f#/	8f#/L
.	.	8g/J
4DD/ 4D/	4A/ 4d/ 4f#/	8a/L
.	.	8b/J
4FF#/ 4F#/	4A/ 4d/ 4a/	8cc#\L
.	.	8dd\J
=10	=10	=10
8GG\ 8G\L	8B/ 8e/ 8g/L	(4.ee\
8GG\ 8G\J	8B/ 8e/ 8g/J	.
4GG\ 4G\	4B/ 4e/ 4g/	.
.	.	8dd\)
4GG\ 4G\	4B/ 4e/ 4g/	8cc#\
.	.	8b\
=11	=11	=11
8AA^/ 8E^/L	8A^/ 8c#^/ 8g^/L	4.b^\
8AA/ 8E/J	8A/ 8c#/ 8g/J	.
4AA/ 4E/	4A/ 4c#/ 4g/	.
.	.	8a/
4AAA/ 4AA/	4G/ 4A/ 4c#/	8g/
.	.	8e/
=12	=12	=12
*>A1	*>A1	*>A1
4DD/	8F#/ 8A/ 8d/L	2f#/
.	8F#/ 8A/ 8d/J	.
4D\	4F#/ 4A/ 4d/	.
4r	4A/	4r
=13:|!	=13:|!	=13:|!
*>A2	*>A2	*>A2
4DD/	8F#/ 8A/ 8d/L	4d/
.	8F#/ 8A/ 8d/J	.
4DD/ 4D/	4F#/ 4A/ 4d/	4r
4r	4e/	4e/
=14	=14	=14
*>B	*>B	*>B
*MM112	*MM112	*MM112
8AAA'/ 8AA'/	8A'/ 8c#'/L	8c#/
8r	8B'/ 8d'/	8d/
8C#'\ 8E'\ 8A'\	8c#'/ 8e'/	8e/
8r	8d'/ 8f#'/	8f#/
8C#'\ 8E'\ 8A'\	8B'/ 8g#'/	8g#/
8r	8c#'/ 8a'/J	8a/
=15	=15	=15
8EE'/ 8E'/	8B'/ 8d'/ 8g#'/	8g#\L
8r	8r	16dd'\Jk
.	.	16r
8D'\ 8E'\ 8G#'\	8d'/ 8b'/L	8dd'\
8r	8c#'/ 8a'/J	8cc#'\
4D\ 4E\ 4G#\	4B/ 4g#/	4b\
=16	=16	=16
8EEE'\ 8EE'\	8E/ 8G#/ 8d/	8g#\L
8r	8r	16dd'\Jk
.	.	16r
8D'\ 8E'\ 8G#'\	8d'/ 8b'/L	8dd'\
8r	8c#'/ 8a'/J	8cc#'\
4D\ 4E\ 4G#\	4B/ 4g#/	4b\
=17	=17	=17
8AAA\ 8AA\	8E/ 8A/ 8c#/	8e/L
8r	8r	16cc#'/Jk
.	.	16r
8C#'\ 8E'\ 8A'\	8c#'/ 8e'/L	8cc#'\
8r	8B'/ 8d'/J	8b'\
8C#\ 8E\	8A/ 8c#/	8a/
8r	8r	8r
=18	=18	=18
8AAA'/ 8AA'/	8E'/ 8c#'/L	8e'/
8r	8F#'/ 8d'/	8f#'/
8C#'\ 8E'\	8G#'/ 8e'/	8g#'/
8r	8A'/ 8f#'/	8a'/
8C#'\ 8E'\ 8A'\	8B'/ 8g#'/	8b'\
8r	8c#'/ 8a'/J	8cc#'\
=19	=19	=19
8EE'/ 8E'/	8d'/ 8g#'/ 8b'/	(8b\L
8r	8r	16ff#'\Jk)
.	.	16r
8E'\ 8G#'\	8f#'/ 8dd'/L	8ff#'\
8r	8e'/ 8cc#'/J	8ee'\
8E\ 8G#\	8d/ 8b/	4dd\
8r	8r	.
=20	=20	=20
8EEE'\ 8EE'\	8E'/ 8G#'/ 8d'/	8b\L
8r	8r	16ff#'\Jk
.	.	16r
8E'\ 8G#'\	8f#'/ 8dd'/L	8ff#'\
8r	8e'/ 8cc#'/J	8ee'\
8E\ 8G#\	8d/ 8b/	4dd\
8r	8r	.
=21	=21	=21
8AAA'\ 8AA'\	8E'/ 8A'/ 8c#'/	8e/L
8r	8r	16cc#'/Jk
.	.	16r
8C#'\ 8E'\ 8A'\	8c#'/ 8e'/L	8cc#'\
8r	8B'/ 8d'/J	8b'\
8C#^\ 8E^\	8A/ 8c#/	8a/
8r	8r	8r
=22	=22	=22
8AAA'/ 8AA'/	8A'/ 8c#'/L	8c#/
8r	8B'/ 8d'/	8d/
8C#'\ 8E'\ 8A'\	8c#'/ 8e'/	8e/
8r	8d'/ 8f#'/	8f#/
8C#'\ 8E'\ 8A'\	8B'/ 8g#'/	8g#/
8r	8c#'/ 8a'/J	8a/
=23	=23	=23
8EE'/ 8E'/	8B'/ 8d'/ 8g#'/	8g#\L
8r	8r	16dd'\Jk
.	.	16r
8D'\ 8E'\ 8G#'\	8d'/ 8b'/L	8dd'\
8r	8c#'/ 8a'/J	8cc#'\
4D\ 4E\ 4G#\	4B/ 4g#/	4b\
=24	=24	=24
8EEE'\ 8EE'\	8E/ 8G#/ 8d/	8g#\L
8r	8r	16dd'\Jk
.	.	16r
8D'\ 8E'\ 8G#'\	8d'/ 8b'/L	8dd'\
8r	8c#'/ 8a'/J	8cc#'\
4D\ 4E\ 4G#\	4B/ 4g#/	4b\
=25	=25	=25
8AAA'\ 8AA'\	8E'/ 8A'/ 8c#'/	8e/L
8r	8r	16cc#'/Jk
.	.	16r
8C#'\ 8E'\ 8A'\	8c#'/ 8e'/L	8cc#'\
8r	8B'/ 8d'/J	8b'\
8C#\ 8E\	8A/ 8c#/	8a/
8r	8r	8r
=26	=26	=26
8AAA'/ 8AA'/	8E'/ 8c#'/L	8e/
8r	8F#'/ 8d'/	8f#/
8C#'\ 8E'\	8G#'/ 8e'/	8g#/
8r	8A'/ 8f#'/	8a/
8C#'\ 8E'\ 8A'\	8B'/ 8g#'/	8b'\
8r	8c#'/ 8a'/J	8cc#'\
=27	=27	=27
8EEE'/ 8EE'/	8d'/ 8g#'/ 8b'/	8b\L
8r	8r	16ff#'\Jk
.	.	16r
8E'\ 8G#'\	8f#'/ 8dd'/L	8ff#'\
8r	8e'/ 8cc#'/J	8ee'\
8E\ 8G#\	8d/ 8b/	8dd\
8r;	8r;	8r;
=28	=28	=28
*MM80	*MM80	*MM80
4r	4r	4r
4EE\	4E/ 4B/ 4d/	4g#/
4EE\	4E/ 4B/ 4d/	4g#/
=29	=29	=29
4AAA\ 4AA\	4E/ 4A/ 4c#/	(2a/
4r	4r	.
4r	4r	4gn/)
=30	=30	=30
8DD^/ 8D^/	8F#^/ 8A^/	8A/L
8r	8r	16f#'/Jk
.	.	16r
8D'\ 8A'\L	8d'/ 8f#'/L	8f#'/
8D'\ 8A'\	8d'/ 8f#'/	8f#'/
8D'\ 8A'\	8d'/ 8f#'/	8f#'/
8D'\ 8A'\J	8d'/ 8f#'/J	8f#'/
=31	=31	=31
4AA\ 4A\	(4d/ 4f#/	(8f#/L
.	.	8a/J)
4AA\ 4A\	8e/ 8g/L	(8g/L
.	8B#/ 8d#/J	8d#/J)
4AA\ 4A\	4c#/) 4e/	4e/
=32	=32	=32
8AAA^\ 8AA^\	8E^/ 8G^/ 8c#^/	8A/L
8r	8r	16g'/Jk
.	.	16r
8A'\L	8c#'/ 8e'/ 8g'/L	8g'/
8A'\	8c#'/ 8e'/ 8g'/	8g'/
8A'\	8c#'/ 8e'/ 8g'/	8g'/
8A'\J	8c#'/ 8e'/ 8g'/J	8g'/
=33	=33	=33
4D\ 4A\	(8g/L	(8g/L
.	8b/J	8b/J)
4D\ 4A\	8f#/ 8a/L	(8a/L
.	8c#/ 8e#/J	8e#/J)
4D\ 4A\	4d/) 4f#/	4f#/
=34	=34	=34
4DD/ 4D/	4A/ 4d/ 4f#/	8f#/L
.	.	8g/J
4DD/ 4D/	4A/ 4d/ 4f#/	8a/L
.	.	8b/J
4FF#/ 4F#/	4A/ 4d/ 4a/	8cc#\L
.	.	8dd\J
=35	=35	=35
(8GG'/ 8G'/L	8B/ 8e/ (8g/L	(4.ee\
8GG'/ 8G'/J	8B/ 8e/ 8g/J	.
4GG'/ 4G'/	4B/ 4e/ 4g/	.
.	.	8dd\)
4GG'/) 4G'/	4B/ 4e/ 4g/)	8cc#\
.	.	8b\
=36	=36	=36
8AA'/ 8E'/L	8A/ 8c#/ (8g/L	4.b^\
8AA'/ 8E'/J	8A/ 8c#/ 8g/J	.
4AA'/ 4E'/	4A/ 4c#/ 4g/	.
.	.	8a/
4AAA'/ 4AA'/	4G/ 4A/ 4c#/)	8g/
.	.	8e'/
=37	=37	=37
4DD'/ 4D'/	8F#/ 8A/ (8d/L	2d/
.	8F#/ 8A/ 8d/J	.
4DDD'/ 4DD'/	4F#/ 4A/ 4d/)	.
4r	4r	4r
=38	=38	=38
*>C	*>C	*>C
*MM120	*MM120	*MM120
*k[f#]	*k[f#]	*k[f#]
2GG/ 2G/	(4B/ 4d/	(4b\
.	4A#/ 4c#/	4a#/)
4GG/ 4G/	4B/) 4d/	4b\
=39	=39	=39
2GG/ 2D/	2G/ 2B/	2g/
4GG/ 4D/	4G/ 4B/	4d/
=40	=40	=40
*^	*^	*
(4D/	2GG\	2g/	(4B\	(4b\
4Cn/	.	.	4An\	4an/)
4D/)	4GG\	4g/	4B\)	4b\
*v	*v	*	*	*
*	*v	*v	*
=41	=41	=41
2GG/ 2E/	2G/ 2d/ 2g/	2dd\
4GG/ 4E/	4G/ 4c/ 4g/	4cc\
=42	=42	=42
4GG/ 4G/	4c/ 4e/	4cc\
4GG/ 4G/	4B/ 4d/	4b\
4GG/ 4E/	4A/ 4c/	4a/
=43	=43	=43
*MM112	*MM112	*MM112
8DD/ 8D/	8A/ 8c/	8g/L
8r	8r	16f#'/Jk
.	.	16r
8DD/ 8D/	8A/ 8c/	8f#/L
8r	8r	16ee'/Jk
.	.	16r
4D\	4A/ 4c/ 4f#/	4dd\
=44	=44	=44
8DD/ 8D/	8A/ 8c/	8g/L
8r	8r	16f#'/Jk
.	.	16r
8DD/ 8D/	8A/ 8c/	8f#/L
8r	8r	16ee'/Jk
.	.	16r
4D\	4A/ 4c/ 4f#/	4dd\
=45	=45	=45
8G\ 8B\	(8e/L	8b\
8r	16d'/Jk)	8r
.	16r	.
8D\ 8A\ 8c\	(8d/L	8f#/
8r	16cc'/Jk)	8r
.	16r	.
8G\ 8B\	8b\	8g/
8r;	8r;	8r;
=46	=46	=46
*MM120	*MM120	*MM120
2GG/ 2G/	(4B/ 4d/	(4b\
.	4A#/ 4c#/	4a#/)
4GG/ 4G/	4B/) 4d/	4b\
=47	=47	=47
2GG/ 2D/	2G/ 2B/	2g/
4GG/ 4D/	4G/ 4B/	4d/
=48	=48	=48
*^	*^	*
(4D/	2GG\	2g/	(4B\	(4b\
4Cn/	.	.	4An\	4an/)
4D/)	4GG\	4g/	4B\)	4b\
*v	*v	*	*	*
*	*v	*v	*
=49	=49	=49
2GG/ 2E/	2G/ 2d/ 2g/	2dd\
4GG/ 4E/	4G/ 4c/ 4g/	4cc\
=50	=50	=50
4CC'/	4G/ 4c/ 4e/	4cc'\
4EE'\	4E/ 4G#/ 4d/	4b'\
4AA'\	4E/ 4A/ 4c/	4a'/
=51	=51	=51
*MM112	*MM112	*MM112
8DD\	8D/ 8A/ 8c/	(8g/L
8r	8r	8f#/J)
8DD/ 8D/	8A/ 8c/ 8f#/	8ee\
8r;	8r;	8r;
4r	4r	4r
=52	=52	=52
*MM54	*MM54	*MM54
4r	4r	4r
8DD\	8D/ 8A/ 8c/	8f#'/
8r	8r	8r
8DD\	8D/ 8A/ 8c/	8f#'/
8r	8r	8r
=53	=53	=53
2GGG\ 2GG\	2D/ 2G/ 2B/	2g/
4r	4r	4r
=54	=54	=54
*>D	*>D	*>D
*MM84	*MM84	*MM84
*k[f#c#]	*k[f#c#]	*k[f#c#]
8DD/ 8D/	8F#^/ 8A^/	8A/L
8r	8r	16f#'/Jk
.	.	16r
8D'\ 8A'\L	8d'/ 8f#'/L	8f#'/
8D'\ 8A'\	8d'/ 8f#'/	8f#'/
8D'\ 8A'\	8d'/ 8f#'/	8f#'/
8D'\ 8A'\J	8d'/ 8f#'/J	8f#'/
=55	=55	=55
4AA\ 4A\	(4d/ 4f#/	(8f#/L
.	.	8a/J)
4AA\ 4A\	8e/ 8g/L	(8g/L
.	8B#/ 8d#/J	8d#/J)
4AA\ 4A\	4c#/) 4e/	4e/
=56	=56	=56
8AAA^\ 8BB^\	8E^/ 8G^/ 8c#^/	8A/L
8r	8r	16g'/Jk
.	.	16r
8A'\L	8c#'/ 8e'/ 8g'/L	8g'/
8A'\	8c#'/ 8e'/ 8g'/	8g'/
8A'\	8c#'/ 8e'/ 8g'/	8g'/
8A'\J	8c#'/ 8e'/ 8g'/J	8g'/
=57	=57	=57
4D\ 4A\	(8g/L	(8g/L
.	8b/J	8b/J)
8D\ 8A\	8f#/ 8a/L	(8a/L
8r	8c#/ 8e#/J	8e#/J)
8D\ 8A\	4d/ 4f#/)	4f#/
8r	.	.
=58	=58	=58
4DD/ 4D/	4A/ 4d/ 4f#/	8f#/L
.	.	8g/J
4DD/ 4D/	4A/ 4d/ 4f#/	8a/L
.	.	8b/J
4FF#/ 4F#/	4A/ 4d/ 4a/	8cc#\L
.	.	8dd\J
=59	=59	=59
(8GG'/ 8G'/L	8B'/ 8e'/ (8g'/L	(4.ee\
8GG'/ 8G'/J	8B/ 8e/ 8g/J	.
4GG'/ 4G'/	4B/ 4e/ 4g/	.
.	.	8dd\)
4GG'/) 4G'/	4B/ 4e/ 4g/)	8cc#\
.	.	8b\
=60	=60	=60
(8AA'/ 8E'/L	(8A'/ 8c#'/ 8g'/L	4.b^\
8AA'/ 8E'/J	8A'/ 8c#'/ 8g'/J	.
4AA'/ 4E'/	4A'/ 4c#'/ 4g'/	.
.	.	8a/
4AAA'/) 4AA'/	4G'/) 4A'/ 4c#'/	8g/
.	.	8e'/
=61	=61	=61
4DD'/ 4D'/	4F#'/ 4A'/ 4d'/	4d/
4DD'/ 4D'/	4r	4r
4DD'/ 4D'/	4r	4r
=62	=62	=62
[2.DD/ [2.D/	(4cn'/ 4f#'/ 4a'/	(4a/
.	4d'/ 4f#'/ 4b'/	4b/
.	4c'/) 4f#'/ 4a'/	4a/)
=63	=63	=63
*	*^	*
4DD/] 4D/]	(2a/	2.B\ 2.fn\	(2a/
8DD'/ 8D'/L	.	.	.
8DD'/ 8D'/J	.	.	.
4DD'/ 4D'/	4g#/)	.	4g#/)
*	*v	*v	*
=64	=64	=64
*	*^	*
*	*	*^	*
4DD/ 4D/	(4gn'/	4e/	4B-'\	(4gn/
4DD/ 4D/	4a'/	8c#'/L	4B-'\	4a/
*	*	*v	*v	*
.	.	8d/J	.
*	*	*^	*
4DD/ 4D/	4g'/)	4e/	&(4B-'\&)	4g/)
*	*v	*v	*v	*
=65	=65	=65
*	*^	*
4DD/ 4D/	(2g/	2.A\ 2.d\	(2g/
8DD'/ 8D'/L	.	.	.
8DD'/ 8D'/J	.	.	.
4DD'/ 4D'/	4f#/)	.	4f#/)
*	*v	*v	*
=66	=66	=66
4DD/ 4D/	4G#/ 4d/ 4e#/	4e#/
4DD/ 4D/	4G#/ 4d/ 4e#/	4g#/
4DD/ 4D/	4G#/ 4d/ 4e#/	4b\
=67	=67	=67
[2AAA/ [2AA/	[2A/ [2d/ [2f#/	(2b\
8AAA/] 8AA/]	8A/] 8d/] 8f#/]	8a/)
8r	8r	8r
=68	=68	=68
8AA'/L	8G'/ 8A'/ 8c#'/L	(8b'\
8AA'/	8G'/ 8A'/ 8c#'/	8a'/
8AA'/	8G'/ 8A'/ 8c#'/	8g'/
8AA'/	8G'/ 8A'/ 8c#'/	8f#'/
8AA'/	8G'/ 8A'/ 8c#'/	8e'/
8AA'/J	8G'/ 8A'/ 8c#'/J	8f#'/)
=69	=69	=69
8DD'/ 8D'/	8F#'/ 8A'/ 8d'/	8d/
8r	8r	8r
8AA'/L	4r	4r
8AA'/J	.	.
[4AA/	4r	4r
=70	=70	=70
*^	*	*
2.AA/_	4AAA\	4G'/ 4A'/ 4c#'/	4e'/
.	4AAA\	4F#'/ 4A'/ 4cn'/	4d#'/
.	4AAA\	4G'/ 4A'/ 4c#'/	4e'/
=71	=71	=71	=71
4AA/]	2DD\	2F#/ 2A/ 2d/	2a/
8AA/L	.	.	.
8AA/J	.	.	.
[4AA/	4r	4r	4r
=72	=72	=72	=72
2.AA/_	4AAA\	4G'/ 4A'/ 4c#'/	4e'/
.	4AAA\	4A'/ 4c#'/	4f#'/
.	4AAA\	4G'/ 4A'/ 4c#'/	4e'/
*v	*v	*	*
=73	=73	=73
4DD/ 4AA/]	[2.F#/ [2.A/ [2.d/	[2.d/
8DD'/ 8D'/L	.	.
8DD'/ 8D'/J	.	.
4DD'/ 4D'/	.	.
=74	=74	=74
2DD/ 2D/	4F#/] 4A/] (4d/]	(4d/]
.	4d/ 4f#/ 4a/	4a/)
4DD/	4A/ 4d/ 4f#/)	4f#/
=75	=75	=75
[2.DDD/ [2.DD/	[2.F#/ (2.A/ [2.d/	[2.d/
=76	=76	=76
4DDD/] 4DD/]	4F#/]) 4A/ 4d/]	4d/]
4r	4r	4r
4r	4r	4r
==	==	==
*-	*-	*-
!!!ENC: Craig Stuart Sapp
!!!END: 2004/05/16/
!!!EFL: 052/651
